Target/Glyph/Image/GitHub/Tauri.svg

<svg width="206" height="231" viewBox="0 0 206 231" fill="none" xmlns="http://www.w3.org/2000/svg">
	<path
		d="M143.143 84C143.143 96.1503 133.293 106 121.143 106C108.992 106 99.1426 96.1503 99.1426 84C99.1426 71.8497 108.992 62 121.143 62C133.293 62 143.143 71.8497 143.143 84Z"
		fill="#FFC131" />
	<ellipse cx="84.1426" cy="147" rx="22" ry="22" transform="rotate(180 84.1426 147)" fill="#24C8DB" />
	<path fill-rule="evenodd" clip-rule="evenodd"
		d="M166.738 154.548C157.86 160.286 148.023 164.269 137.757 166.341C139.858 160.282 141 153.774 141 147C141 144.543 140.85 142.121 140.558 139.743C144.975 138.204 149.215 136.139 153.183 133.575C162.73 127.404 170.292 118.608 174.961 108.244C179.63 97.8797 181.207 86.3876 179.502 75.1487C177.798 63.9098 172.884 53.4021 165.352 44.8883C157.82 36.3744 147.99 30.2165 137.042 27.1546C126.095 24.0926 114.496 24.2568 103.64 27.6274C92.7839 30.998 83.1319 37.4317 75.8437 46.1553C74.9102 47.2727 74.0206 48.4216 73.176 49.5993C61.9292 50.8488 51.0363 54.0318 40.9629 58.9556C44.2417 48.4586 49.5653 38.6591 56.679 30.1442C67.0505 17.7298 80.7861 8.57426 96.2354 3.77762C111.685 -1.01901 128.19 -1.25267 143.769 3.10474C159.348 7.46215 173.337 16.2252 184.056 28.3411C194.775 40.457 201.767 55.4101 204.193 71.404C206.619 87.3978 204.374 103.752 197.73 118.501C191.086 133.25 180.324 145.767 166.738 154.548ZM41.9631 74.275L62.5557 76.8042C63.0459 72.813 63.9401 68.9018 65.2138 65.1274C57.0465 67.0016 49.2088 70.087 41.9631 74.275Z"
		fill="#FFC131" />
	<path fill-rule="evenodd" clip-rule="evenodd"
		d="M38.4045 76.4519C47.3493 70.6709 57.2677 66.6712 67.6171 64.6132C65.2774 70.9669 64 77.8343 64 85.0001C64 87.1434 64.1143 89.26 64.3371 91.3442C60.0093 92.8732 55.8533 94.9092 51.9599 97.4256C42.4128 103.596 34.8505 112.392 30.1816 122.756C25.5126 133.12 23.9357 144.612 25.6403 155.851C27.3449 167.09 32.2584 177.598 39.7906 186.112C47.3227 194.626 57.153 200.784 68.1003 203.846C79.0476 206.907 90.6462 206.743 101.502 203.373C112.359 200.002 122.011 193.568 129.299 184.845C130.237 183.722 131.131 182.567 131.979 181.383C143.235 180.114 154.132 176.91 164.205 171.962C160.929 182.49 155.596 192.319 148.464 200.856C138.092 213.27 124.357 222.426 108.907 227.222C93.458 232.019 76.9524 232.253 61.3736 227.895C45.7948 223.538 31.8055 214.775 21.0867 202.659C10.3679 190.543 3.37557 175.59 0.949823 159.596C-1.47592 143.602 0.768139 127.248 7.41237 112.499C14.0566 97.7497 24.8183 85.2327 38.4045 76.4519ZM163.062 156.711L163.062 156.711C162.954 156.773 162.846 156.835 162.738 156.897C162.846 156.835 162.954 156.773 163.062 156.711Z"
		fill="#24C8DB" />
</svg>

<svg xmlns="http://www.w3.org/2000/svg" width="206" height="231" fill="none" viewBox="0 0 206 231"><path fill="#ffc131" d="M143.143 84c0 12.15-9.85 22-22 22s-22-9.85-22-22 9.849-22 22-22 22 9.85 22 22"/><circle cx="84.143" cy="147" r="22" fill="#24c8db" transform="rotate(180 84.143 147)"/><path fill="#ffc131" fill-rule="evenodd" d="M166.738 154.548a84 84 0 0 1-28.981 11.793A59 59 0 0 0 141 147c0-2.457-.15-4.879-.442-7.257a59.035 59.035 0 0 0 38.944-64.594 59.02 59.02 0 0 0-42.46-47.994 59.03 59.03 0 0 0-63.866 22.444 98 98 0 0 0-32.213 9.357 84 84 0 1 1 125.775 95.592M41.963 74.275l20.593 2.53a59 59 0 0 1 2.658-11.678 84 84 0 0 0-23.25 9.148" clip-rule="evenodd"/><path fill="#24c8db" fill-rule="evenodd" d="M38.405 76.452a84 84 0 0 1 29.212-11.839A58.9 58.9 0 0 0 64 85q.001 3.216.337 6.344a59.02 59.02 0 0 0-34.155 31.412 59.03 59.03 0 0 0 9.609 63.356 59.027 59.027 0 0 0 92.188-4.729 98 98 0 0 0 32.226-9.421 83.99 83.99 0 0 1-55.298 55.26A83.995 83.995 0 0 1 .95 159.596a84 84 0 0 1 37.454-83.144m124.657 80.259-.324.186z" clip-rule="evenodd"/></svg>
